Sources/FrostedUI/Resources/Icons.xcassets/trashSolid16.imageset/trash-solid-16.svg

<svg
  width="16"
  height="16"
  viewBox="0 0 16 16"
  fill="none"
  xmlns="http://www.w3.org/2000/svg"
  data-fui-icon="true"
>
  <path
    d="M12.3795 13.6101L13 5.75H3L3.62053 13.6101C3.69363 14.5359 4.46627 15.25 5.39501 15.25H10.605C11.5337 15.25 12.3064 14.5359 12.3795 13.6101Z"
    fill="currentColor"
    stroke="currentColor"
    stroke-width="1.5"
    stroke-linecap="round"
    stroke-linejoin="round"
  />
  <path
    d="M5 3.75L5.37127 2.26493C5.59385 1.37459 6.39382.75 7.31155.75H8.68845C9.60618.75 10.4061 1.37459 10.6287 2.26493L11 3.75M1.75 3.75H14.25"
    stroke="currentColor"
    stroke-width="1.5"
    stroke-linecap="round"
    stroke-linejoin="round"
  />
</svg>

<svg xmlns="http://www.w3.org/2000/svg" width="16" height="16" fill="none" data-fui-icon="true" viewBox="0 0 16 16"><path fill="currentColor" stroke="currentColor" stroke-linecap="round" stroke-linejoin="round" stroke-width="1.5" d="M12.38 13.61 13 5.75H3l.62 7.86a1.78 1.78 0 0 0 1.775 1.64h5.21a1.78 1.78 0 0 0 1.774-1.64"/><path stroke="currentColor" stroke-linecap="round" stroke-linejoin="round" stroke-width="1.5" d="m5 3.75.371-1.485A2 2 0 0 1 7.311.75h1.377a2 2 0 0 1 1.94 1.515L11 3.75m-9.25 0h12.5"/></svg>
